img/o/orbit.love.svg

<svg width="280" height="280" viewBox="0 0 280 280" fill="none" xmlns="http://www.w3.org/2000/svg">
<path fill-rule="evenodd" clip-rule="evenodd" d="M224.008 127.19C221.947 111.464 216.095 96.4887 206.964 83.5797C197.834 70.6707 185.704 60.2227 171.64 53.1534C157.576 46.084 142.009 42.6095 126.305 43.0348C110.6 43.4602 95.2399 47.7725 81.5717 55.5931C67.9035 63.4136 56.3458 74.5032 47.9136 87.8879C39.4814 101.273 34.4327 116.543 33.2107 132.359C31.9887 148.174 34.6307 164.05 40.905 178.594C47.1792 193.137 56.8936 205.903 69.1951 215.769C78.6133 211.535 88.9113 206.591 99.8485 201.047C88.786 195.694 79.3862 187.386 72.6693 177.021C65.9524 166.657 62.1749 154.632 61.7469 142.253C61.319 129.875 64.256 117.613 70.2404 106.801C76.2248 95.9882 85.0275 87.0371 95.6928 80.9188C106.359 74.8004 118.48 71.7486 130.742 72.0943C143.004 72.44 154.938 76.17 165.249 82.8798C175.56 89.5895 183.854 99.0229 189.232 110.156C194.61 121.288 196.865 133.696 195.753 146.032C205.882 139.544 215.353 133.229 224.008 127.19ZM224.816 138.172C215.122 145.412 204.38 152.913 192.83 160.476C187.671 176.816 176.573 190.575 161.77 198.983C146.968 207.392 129.56 209.825 113.051 205.792C100.39 211.938 88.3776 217.258 77.3781 221.664C92.0085 231.059 108.886 236.276 126.218 236.761C143.55 237.245 160.687 232.979 175.81 224.415C190.932 215.851 203.475 203.311 212.103 188.125C220.732 172.939 225.125 155.677 224.816 138.172Z" fill="#1E2124"/>
<path fill-rule="evenodd" clip-rule="evenodd" d="M229.687 59.3629C230.986 59.3629 232.255 58.9741 233.335 58.2455C234.415 57.517 235.256 56.4815 235.754 55.27C236.25 54.0585 236.38 52.7253 236.127 51.4392C235.873 50.1531 235.248 48.9717 234.33 48.0445C233.412 47.1172 232.242 46.4857 230.968 46.2299C229.694 45.9741 228.374 46.1054 227.175 46.6073C225.974 47.1091 224.949 47.9589 224.228 49.0492C223.506 50.1395 223.121 51.4214 223.121 52.7327C223.12 53.6038 223.289 54.4664 223.619 55.2714C223.948 56.0763 224.432 56.8077 225.041 57.4236C225.652 58.0395 226.376 58.5279 227.173 58.8606C227.97 59.1934 228.825 59.3641 229.687 59.3629Z" fill="#00CCF5"/>
<path fill-rule="evenodd" clip-rule="evenodd" d="M8.75177 172.014C10.4838 172.014 12.1769 171.495 13.6167 170.523C15.0565 169.55 16.1782 168.169 16.8398 166.552C17.5014 164.936 17.6732 163.157 17.3333 161.443C16.9935 159.728 16.1573 158.153 14.9307 156.918C13.7041 155.683 12.1421 154.844 10.4427 154.506C8.74334 154.168 6.9828 154.347 5.38411 155.02C3.78542 155.693 2.42043 156.83 1.462 158.286C0.503558 159.744 -0.00523507 161.454 4.06154e-05 163.204C0.00709584 165.543 0.932261 167.783 2.57276 169.435C4.21327 171.087 6.43529 172.014 8.75177 172.014Z" fill="#00CCF5"/>
<path fill-rule="evenodd" clip-rule="evenodd" d="M156.554 119.96C166.008 114.684 175.213 109.678 184.098 105.058C184.427 105.596 184.782 106.233 185.155 106.951C176.35 111.598 167.145 116.623 157.692 121.907L156.554 119.96ZM279.345 72.8846C275.125 65.5008 249.536 73.3421 213.321 90.4334C213.659 90.9987 213.996 91.5819 214.316 92.174C249.012 75.4954 273.223 67.4656 276.297 73.9253C281.131 82.3767 225.653 123.845 152.441 166.542C79.2282 209.238 15.9138 236.998 11.0803 228.546C8.32601 223.522 21.9467 209.83 34.1813 198.939C16.5624 213.294 7.32198 224.356 10.3607 229.667C17.2554 241.734 83.9905 218.004 158.278 174.724C232.566 131.444 286.275 84.9517 279.345 72.8846Z" fill="#00CCF5"/>
<path d="M147.856 126.975C146.291 124.262 145.706 121.085 146.201 117.986C146.695 114.886 148.24 112.056 150.57 109.977C152.9 107.899 155.872 106.701 158.98 106.588C162.087 106.475 165.137 107.454 167.609 109.357C170.081 111.261 171.823 113.972 172.538 117.028C173.252 120.083 172.895 123.295 171.527 126.114C170.159 128.933 167.865 131.186 165.035 132.488C162.206 133.791 159.018 134.061 156.012 133.255C154.301 132.824 152.696 132.044 151.293 130.964C149.89 129.884 148.721 128.527 147.856 126.975Z" fill="#FA00E9"/>
</svg>

<svg xmlns="http://www.w3.org/2000/svg" fill="none" viewBox="0 0 280 280"><path fill="#1E2124" fill-rule="evenodd" d="M224.008 127.19a97.452 97.452 0 0 0-17.044-43.61 96.207 96.207 0 0 0-35.324-30.427 95.184 95.184 0 0 0-45.335-10.118 95.252 95.252 0 0 0-44.733 12.558c-13.669 7.82-25.226 18.91-33.658 32.295a97.537 97.537 0 0 0-14.703 44.471 97.739 97.739 0 0 0 7.694 46.235c6.274 14.543 15.989 27.309 28.29 37.175 9.418-4.234 19.716-9.178 30.654-14.722a67.373 67.373 0 0 1-27.18-24.026 68.277 68.277 0 0 1-10.922-34.768 68.351 68.351 0 0 1 8.493-35.452 67.502 67.502 0 0 1 25.453-25.882 66.648 66.648 0 0 1 35.049-8.825 66.702 66.702 0 0 1 34.507 10.786c10.311 6.71 18.605 16.143 23.983 27.276a68.383 68.383 0 0 1 6.521 35.876c10.129-6.488 19.6-12.803 28.255-18.842Zm.808 10.982c-9.694 7.24-20.436 14.741-31.986 22.304-5.159 16.34-16.257 30.099-31.06 38.507a66.585 66.585 0 0 1-48.719 6.809c-12.661 6.146-24.673 11.466-35.673 15.872a95.306 95.306 0 0 0 48.84 15.097 95.222 95.222 0 0 0 49.592-12.346c15.122-8.564 27.665-21.104 36.293-36.29a97.644 97.644 0 0 0 12.713-49.953Z" clip-rule="evenodd"/><path fill="#00CCF5" fill-rule="evenodd" d="M229.687 59.363a6.52 6.52 0 0 0 3.648-1.117 6.623 6.623 0 0 0 2.419-2.976 6.702 6.702 0 0 0 .373-3.83 6.657 6.657 0 0 0-1.797-3.395 6.544 6.544 0 0 0-3.362-1.815 6.504 6.504 0 0 0-3.793.377 6.572 6.572 0 0 0-2.947 2.442 6.672 6.672 0 0 0-1.107 3.684 6.673 6.673 0 0 0 1.92 4.69 6.567 6.567 0 0 0 2.132 1.438 6.502 6.502 0 0 0 2.514.502ZM8.752 172.014a8.693 8.693 0 0 0 4.865-1.491 8.822 8.822 0 0 0 3.223-3.971 8.916 8.916 0 0 0 .493-5.109 8.866 8.866 0 0 0-2.402-4.525 8.724 8.724 0 0 0-4.488-2.412 8.673 8.673 0 0 0-5.059.514 8.775 8.775 0 0 0-3.922 3.266 8.903 8.903 0 0 0 1.11 11.149 8.707 8.707 0 0 0 6.18 2.579ZM156.554 119.96c9.454-5.276 18.659-10.282 27.544-14.902.329.538.684 1.175 1.057 1.893-8.805 4.647-18.01 9.672-27.463 14.956l-1.138-1.947Zm122.791-47.075c-4.22-7.384-29.809.457-66.024 17.548.338.566.675 1.149.995 1.741 34.696-16.679 58.907-24.708 61.981-18.249 4.834 8.452-50.644 49.92-123.856 92.617-73.213 42.696-136.527 70.456-141.36 62.004-2.755-5.024 10.866-18.716 23.1-29.607-17.619 14.355-26.859 25.417-23.82 30.728 6.894 12.067 73.63-11.663 147.917-54.943 74.288-43.28 127.997-89.772 121.067-101.84Z" clip-rule="evenodd"/><path fill="#FA00E9" d="M147.856 126.975a13.68 13.68 0 0 1-1.655-8.989 13.6 13.6 0 0 1 4.369-8.009 13.363 13.363 0 0 1 8.41-3.389 13.348 13.348 0 0 1 8.629 2.769 13.585 13.585 0 0 1 4.929 7.671 13.689 13.689 0 0 1-1.011 9.086 13.492 13.492 0 0 1-6.492 6.374 13.312 13.312 0 0 1-9.023.767 12.904 12.904 0 0 1-4.719-2.291 13.047 13.047 0 0 1-3.437-3.989Z"/></svg>
